blockchains/ethereum/assets/0x0D8775F648430679A709E98d2b0Cb6250d2887EF/logo.svg

<svg fill="none" height="250" viewBox="0 0 250 250" width="250" xmlns="http://www.w3.org/2000/svg" xmlns:xlink="http://www.w3.org/1999/xlink"><clipPath id="a"><path d="m0 0h250v250h-250z"/></clipPath><g clip-path="url(#a)"><circle cx="125" cy="125" fill="#fff" r="125"/><path d="m208.334 184.715-82.935-47.488-83.7323 47.685z" fill="#662d91"/><path d="m125.426 41.6641-.027 95.5649 82.935 47.489z" fill="#9e1f63"/><path d="m41.6667 184.914 83.7323-47.685.027-95.5649z" fill="#ff5000"/><path d="m125.228 99.6406-34.2378 57.1874h68.6288z" fill="#fff" stroke="#ff5000" stroke-miterlimit="10" stroke-width="1.2"/></g></svg>

<svg width="250" height="250" viewBox="0 0 250 250" fill="none" xmlns="http://www.w3.org/2000/svg">
<g clip-path="url(#clip0_50_10876)">
<circle cx="125" cy="125" r="125" fill="white"/>
<path d="M208.334 184.715L125.399 137.227L41.6667 184.912L208.334 184.715Z" fill="#662D91"/>
<path d="M125.426 41.6641L125.399 137.229L208.334 184.718L125.426 41.6641Z" fill="#9E1F63"/>
<path d="M41.6667 184.914L125.399 137.229L125.426 41.6641L41.6667 184.914Z" fill="#FF5000"/>
<path d="M125.228 99.6406L90.9902 156.828H159.619L125.228 99.6406Z" fill="white" stroke="#FF5000" stroke-width="1.2" stroke-miterlimit="10"/>
</g>
<defs>
<clipPath id="clip0_50_10876">
<rect width="250" height="250" fill="white"/>
</clipPath>
</defs>
</svg>
